apps/www/public/images/realtime/example-apps/dark/location.svg

<svg width="361" height="210" viewBox="0 0 361 210" fill="none" xmlns="http://www.w3.org/2000/svg">
<g clip-path="url(#clip0_1125_17607)">
<path d="M315.5 232.5H316V232V30C316 25.3056 312.194 21.5 307.5 21.5H52.5C47.8056 21.5 44 25.3056 44 30V232V232.5H44.5H315.5Z" stroke="#3E3E3E"/>
<path fill-rule="evenodd" clip-rule="evenodd" d="M44.5 217.296V232H65.7546L57.992 226.629L44.6408 217.393L44.5 217.296ZM88.5706 232H85.5218L63.9784 217.088L50.7961 207.975L44.5 203.617V30C44.5 25.5817 48.0817 22 52.5 22H161.802L172.48 26.9117L102.457 162.441C101.658 164.005 102.109 165.911 103.523 166.919L134.049 188.704L112.723 208.999L101.194 219.989L88.5706 232ZM236.641 232H98.7692L104.621 226.434L116.735 214.909L141.759 191.096L206.505 149.565L254.913 216.596L236.641 232ZM263.984 232H254.106L262.442 224.969L267.828 229.781L263.984 232ZM315.5 180.23V202.257L274.229 226.085L267.864 220.382L276.369 213.231L313.511 181.907L315.5 180.23ZM315.5 92.6087V165.493L298.946 179.457L260.307 212.049L212.452 145.764L212.441 145.746L303.716 87.208L303.736 87.2211L303.755 87.2105L315.5 92.6087ZM294.709 22H307.5C311.918 22 315.5 25.5817 315.5 30V84.8665L304.857 79.9758L273.349 65.5028L286.179 39.3765L286.197 39.3659L286.196 39.3423L286.224 39.2645L286.252 39.2486L291.757 28.0024L292.435 26.6317L294.709 22ZM178.663 22H262.363L278.809 38.404L276.338 43.4544L266.949 62.5625L244.635 52.3068L178.663 22ZM272.345 22H286.855L282.085 31.7136L272.345 22ZM139.672 184.062L110.11 162.969L178.891 29.8465L282.215 77.3164L296.146 83.7194L205.886 141.597L205.831 141.629C205.655 141.706 205.49 141.802 205.326 141.921C205.262 141.958 205.212 141.999 205.182 142.053L139.672 184.062Z" fill="#282828"/>
<path d="M102.5 125L119.604 133.102C120.636 133.591 121.05 134.843 120.513 135.851L106.322 162.458C105.851 163.341 106.106 164.437 106.918 165.022L138.398 187.706C139.063 188.185 139.954 188.21 140.645 187.768L205.923 146.009C206.81 145.441 207.986 145.659 208.611 146.507L234.377 181.476C235.007 182.331 236.195 182.545 237.083 181.963L250 173.5" stroke="#3FCF8E" stroke-width="4"/>
<path d="M103.52 121C103.52 129.295 96.7953 136.02 88.5 136.02C80.2047 136.02 73.48 129.295 73.48 121C73.48 112.705 80.2047 105.98 88.5 105.98C96.7953 105.98 103.52 112.705 103.52 121Z" stroke="#3FCF8E" stroke-width="3.96"/>
<path d="M96.0196 121C96.0196 125.153 92.653 128.52 88.5 128.52C84.347 128.52 80.9804 125.153 80.9804 121C80.9804 116.847 84.347 113.48 88.5 113.48C92.653 113.48 96.0196 116.847 96.0196 121Z" fill="#3FCF8E" stroke="#3FCF8E" stroke-width="4.96076"/>
<path d="M264.02 170C264.02 174.153 260.653 177.52 256.5 177.52C252.347 177.52 248.98 174.153 248.98 170C248.98 165.847 252.347 162.48 256.5 162.48C260.653 162.48 264.02 165.847 264.02 170Z" fill="#3FCF8E" stroke="#3FCF8E" stroke-width="4.96076"/>
<path d="M44.5 30C44.5 25.5817 48.0817 22 52.5 22H307.5C311.918 22 315.5 25.5817 315.5 30V87H44.5V30Z" fill="#343434"/>
<path d="M72.576 47V38.492H71.4V45.02L67.152 38.492H65.58V47H66.756V40.064L71.352 47H72.576ZM75.3443 43.52C75.3923 42.776 75.9683 42.044 76.9163 42.044C77.9363 42.044 78.4763 42.692 78.5003 43.52H75.3443ZM78.6683 45.02C78.4523 45.668 77.9843 46.184 77.0483 46.184C76.0763 46.184 75.3323 45.464 75.3083 44.432H79.6523C79.6643 44.36 79.6763 44.216 79.6763 44.072C79.6763 42.272 78.6803 41.048 76.9043 41.048C75.4523 41.048 74.1443 42.284 74.1443 44.096C74.1443 46.052 75.5003 47.18 77.0483 47.18C78.3923 47.18 79.3163 46.376 79.6403 45.356L78.6683 45.02ZM84.3097 41.228L82.8097 45.572L81.5137 41.228H80.2777L82.1737 47H83.3617L84.8617 42.608L86.3977 47H87.5617L89.4337 41.228H88.2457L86.9737 45.572L85.4737 41.228H84.3097ZM93.2133 45.452C93.2133 46.364 93.9693 47.18 95.1453 47.18C96.1773 47.18 96.7533 46.628 97.0053 46.22C97.0053 46.64 97.0413 46.856 97.0653 47H98.1693C98.1453 46.856 98.0973 46.556 98.0973 46.052V43.16C98.0973 42.032 97.4253 41.048 95.6973 41.048C94.4493 41.048 93.4533 41.816 93.3333 42.92L94.4133 43.172C94.4853 42.5 94.9293 42.008 95.7213 42.008C96.5973 42.008 96.9693 42.476 96.9693 43.04C96.9693 43.244 96.8733 43.424 96.5253 43.472L94.9653 43.7C93.9693 43.844 93.2133 44.42 93.2133 45.452ZM95.3013 46.232C94.7253 46.232 94.3653 45.824 94.3653 45.392C94.3653 44.876 94.7253 44.6 95.2053 44.528L96.9693 44.264V44.528C96.9693 45.788 96.2253 46.232 95.3013 46.232ZM103.059 41.168C102.999 41.156 102.843 41.132 102.687 41.132C102.099 41.132 101.379 41.348 100.959 42.236V41.228H99.8545V47H100.983V44.108C100.983 42.836 101.619 42.332 102.567 42.332C102.723 42.332 102.891 42.344 103.059 42.368V41.168ZM107.465 41.168C107.405 41.156 107.249 41.132 107.093 41.132C106.505 41.132 105.785 41.348 105.365 42.236V41.228H104.261V47H105.389V44.108C105.389 42.836 106.025 42.332 106.973 42.332C107.129 42.332 107.297 42.344 107.465 42.368V41.168ZM109.783 47V41.228H108.667V47H109.783ZM108.415 39.044C108.415 39.488 108.775 39.848 109.219 39.848C109.675 39.848 110.035 39.488 110.035 39.044C110.035 38.588 109.675 38.228 109.219 38.228C108.775 38.228 108.415 38.588 108.415 39.044ZM116.646 41.228H115.434L113.778 45.68L112.134 41.228H110.862L113.202 47H114.342L116.646 41.228ZM117.307 45.452C117.307 46.364 118.063 47.18 119.239 47.18C120.271 47.18 120.847 46.628 121.099 46.22C121.099 46.64 121.135 46.856 121.159 47H122.263C122.239 46.856 122.191 46.556 122.191 46.052V43.16C122.191 42.032 121.519 41.048 119.791 41.048C118.543 41.048 117.547 41.816 117.427 42.92L118.507 43.172C118.579 42.5 119.023 42.008 119.815 42.008C120.691 42.008 121.063 42.476 121.063 43.04C121.063 43.244 120.967 43.424 120.619 43.472L119.059 43.7C118.063 43.844 117.307 44.42 117.307 45.452ZM119.395 46.232C118.819 46.232 118.459 45.824 118.459 45.392C118.459 44.876 118.819 44.6 119.299 44.528L121.063 44.264V44.528C121.063 45.788 120.319 46.232 119.395 46.232ZM125.076 47V38.312H123.948V47H125.076ZM131.507 39.404H130.475V40.34C130.475 40.844 130.211 41.228 129.587 41.228H129.275V42.248H130.379V45.416C130.379 46.46 131.003 47.06 131.987 47.06C132.371 47.06 132.659 46.988 132.755 46.952V45.992C132.659 46.016 132.455 46.04 132.311 46.04C131.723 46.04 131.507 45.776 131.507 45.248V42.248H132.755V41.228H131.507V39.404ZM135.377 47V41.228H134.261V47H135.377ZM134.009 39.044C134.009 39.488 134.369 39.848 134.813 39.848C135.269 39.848 135.629 39.488 135.629 39.044C135.629 38.588 135.269 38.228 134.813 38.228C134.369 38.228 134.009 38.588 134.009 39.044ZM138.412 47V43.52C138.412 42.656 138.952 42.056 139.756 42.056C140.62 42.056 140.98 42.632 140.98 43.376V47H142.108V43.508C142.108 42.68 142.648 42.056 143.44 42.056C144.292 42.056 144.664 42.62 144.664 43.376V47H145.78V43.256C145.78 41.744 144.796 41.06 143.788 41.06C143.056 41.06 142.312 41.324 141.856 42.152C141.544 41.408 140.848 41.06 140.128 41.06C139.456 41.06 138.736 41.36 138.376 41.996V41.228H137.296V47H138.412ZM148.317 43.52C148.365 42.776 148.941 42.044 149.889 42.044C150.909 42.044 151.449 42.692 151.473 43.52H148.317ZM151.641 45.02C151.425 45.668 150.957 46.184 150.021 46.184C149.049 46.184 148.305 45.464 148.281 44.432H152.625C152.637 44.36 152.649 44.216 152.649 44.072C152.649 42.272 151.653 41.048 149.877 41.048C148.425 41.048 147.117 42.284 147.117 44.096C147.117 46.052 148.473 47.18 150.021 47.18C151.365 47.18 152.289 46.376 152.613 45.356L151.641 45.02Z" fill="#A0A0A0"/>
<path d="M70.56 69V56.04H68.48C68.2 57.4 66.92 58.44 65.06 58.48V60.12H68.2V69H70.56ZM75.3748 60.9C75.3548 60.68 75.3148 60.44 75.3148 60.24C75.3148 58.9 76.0548 57.84 77.5748 57.84C79.0348 57.84 79.7548 58.8 79.7548 59.86C79.7548 60.8 79.2548 61.58 78.0948 62.3L75.9548 63.64C73.6948 65.04 72.9148 66.78 72.8748 69H82.2548V66.88H75.8348C76.0148 66.24 76.5348 65.78 77.1548 65.4L79.6748 63.84C81.2348 62.88 82.1748 61.5 82.1748 59.82C82.1748 57.6 80.4748 55.74 77.6148 55.74C74.6748 55.74 72.9948 57.76 72.9948 60C72.9948 60.26 73.0348 60.56 73.0548 60.74L75.3748 60.9ZM91.718 69V63.22C91.718 61.98 92.498 61.06 93.738 61.06C95.058 61.06 95.618 61.94 95.618 63.06V69H97.898V63.22C97.898 62.02 98.698 61.06 99.918 61.06C101.218 61.06 101.798 61.92 101.798 63.06V69H104.038V62.68C104.038 60.1 102.358 58.98 100.598 58.98C99.338 58.98 98.198 59.42 97.438 60.7C96.918 59.56 95.798 58.98 94.518 58.98C93.418 58.98 92.198 59.5 91.638 60.5V59.26H89.418V69H91.718ZM109.179 69V59.26H106.879V69H109.179ZM106.519 55.84C106.519 56.68 107.199 57.34 108.019 57.34C108.859 57.34 109.539 56.68 109.539 55.84C109.539 55 108.859 54.32 108.019 54.32C107.199 54.32 106.519 55 106.519 55.84ZM114.492 63.38C114.492 62.1 115.192 61.08 116.512 61.08C117.972 61.08 118.512 62.04 118.512 63.24V69H120.832V62.84C120.832 60.7 119.692 58.98 117.312 58.98C116.232 58.98 115.072 59.44 114.432 60.56V59.26H112.172V69H114.492V63.38ZM129.86 67.92C129.86 68.32 129.9 68.78 129.94 69H132.16C132.12 68.64 132.06 68.02 132.06 67.22V59.26H129.74V65.02C129.74 66.3 129.04 67.2 127.7 67.2C126.3 67.2 125.74 66.18 125.74 64.98V59.26H123.42V65.4C123.42 67.56 124.78 69.28 127.1 69.28C128.24 69.28 129.38 68.8 129.86 67.92ZM138.003 56.28H135.903V57.74C135.903 58.6 135.443 59.26 134.403 59.26H133.903V61.32H135.703V66.22C135.703 68.04 136.823 69.12 138.623 69.12C139.463 69.12 139.903 68.96 140.043 68.9V66.98C139.943 67 139.563 67.06 139.243 67.06C138.383 67.06 138.003 66.7 138.003 65.84V61.32H140.023V59.26H138.003V56.28ZM143.929 63.06C144.009 62.02 144.849 60.9 146.309 60.9C147.909 60.9 148.669 61.92 148.709 63.06H143.929ZM148.969 65.6C148.649 66.56 147.929 67.3 146.529 67.3C145.089 67.3 143.929 66.24 143.869 64.76H150.989C151.009 64.72 151.049 64.4 151.049 64.02C151.049 60.94 149.289 58.96 146.289 58.96C143.829 58.96 141.549 61 141.549 64.08C141.549 67.38 143.889 69.3 146.529 69.3C148.869 69.3 150.409 67.92 150.929 66.22L148.969 65.6ZM152.406 66.36C152.526 67.46 153.606 69.3 156.426 69.3C158.906 69.3 160.106 67.66 160.106 66.18C160.106 64.74 159.146 63.62 157.306 63.22L155.826 62.92C155.226 62.8 154.846 62.42 154.846 61.9C154.846 61.3 155.426 60.78 156.246 60.78C157.546 60.78 157.966 61.68 158.046 62.24L160.006 61.68C159.846 60.72 158.966 58.96 156.246 58.96C154.226 58.96 152.666 60.4 152.666 62.1C152.666 63.44 153.566 64.56 155.286 64.94L156.726 65.26C157.506 65.42 157.866 65.82 157.866 66.34C157.866 66.94 157.366 67.46 156.406 67.46C155.166 67.46 154.506 66.68 154.426 65.8L152.406 66.36ZM166.767 66.36C166.767 67.9 168.027 69.3 170.067 69.3C171.647 69.3 172.607 68.5 173.067 67.76C173.067 68.54 173.147 68.94 173.167 69H175.327C175.307 68.9 175.207 68.32 175.207 67.44V62.6C175.207 60.66 174.067 58.96 171.067 58.96C168.667 58.96 167.147 60.46 166.967 62.14L169.087 62.62C169.187 61.64 169.867 60.86 171.087 60.86C172.367 60.86 172.927 61.52 172.927 62.34C172.927 62.68 172.767 62.96 172.207 63.04L169.707 63.42C168.047 63.66 166.767 64.62 166.767 66.36ZM170.507 67.48C169.587 67.48 169.087 66.88 169.087 66.22C169.087 65.42 169.667 65.02 170.387 64.9L172.927 64.52V64.96C172.927 66.86 171.807 67.48 170.507 67.48ZM183.473 59.26L181.173 66L179.193 59.26H176.713L179.873 69H182.253L184.613 62L187.033 69H189.353L192.473 59.26H190.113L188.173 66L185.873 59.26H183.473ZM193.584 66.36C193.584 67.9 194.844 69.3 196.884 69.3C198.464 69.3 199.424 68.5 199.884 67.76C199.884 68.54 199.964 68.94 199.984 69H202.144C202.124 68.9 202.024 68.32 202.024 67.44V62.6C202.024 60.66 200.884 58.96 197.884 58.96C195.484 58.96 193.964 60.46 193.784 62.14L195.904 62.62C196.004 61.64 196.684 60.86 197.904 60.86C199.184 60.86 199.744 61.52 199.744 62.34C199.744 62.68 199.584 62.96 199.024 63.04L196.524 63.42C194.864 63.66 193.584 64.62 193.584 66.36ZM197.324 67.48C196.404 67.48 195.904 66.88 195.904 66.22C195.904 65.42 196.484 65.02 197.204 64.9L199.744 64.52V64.96C199.744 66.86 198.624 67.48 197.324 67.48ZM207.554 72.94L213.754 59.26H211.294L208.674 65.42L205.874 59.26H203.254L207.414 67.84L205.074 72.94H207.554Z" fill="#ECEDEE"/>
</g>
<defs>
<clipPath id="clip0_1125_17607">
<rect width="360" height="210" fill="white" transform="translate(0.5)"/>
</clipPath>
</defs>
</svg>

<svg xmlns="http://www.w3.org/2000/svg" width="361" height="210" fill="none" viewBox="0 0 361 210"><g clip-path="url(#a)"><path stroke="#3e3e3e" d="M315.5 232.5h.5V30a8.5 8.5 0 0 0-8.5-8.5h-255A8.5 8.5 0 0 0 44 30v202.5h271.5Z"/><path fill="#282828" fill-rule="evenodd" d="M44.5 217.296V232h21.255l-7.763-5.371-13.351-9.236zM88.57 232h-3.048l-21.544-14.912-13.182-9.113-6.296-4.358V30a8 8 0 0 1 8-8h109.302l10.678 4.912-70.023 135.529c-.799 1.564-.348 3.47 1.066 4.478l30.526 21.785-21.326 20.295-11.529 10.99zm148.071 0H98.769l5.852-5.566 12.114-11.525 25.024-23.813 64.746-41.531 48.408 67.031zm27.343 0h-9.878l8.336-7.031 5.386 4.812zm51.516-51.77v22.027l-41.271 23.828-6.365-5.703 8.505-7.151 37.142-31.324zm0-87.621v72.884l-16.554 13.964-38.639 32.592-47.855-66.285-.011-.018 91.275-58.538.02.013.019-.01zM294.709 22H307.5a8 8 0 0 1 8 8v54.867l-10.643-4.891-31.508-14.473 12.83-26.126.018-.011-.001-.024.028-.078.028-.015 5.505-11.247.678-1.37zm-116.046 0h83.7l16.446 16.404-2.471 5.05-9.389 19.109-22.314-10.256zm93.682 0h14.51l-4.77 9.714zM139.672 184.062l-29.562-21.093 68.781-133.122 103.324 47.47 13.931 6.402-90.26 57.878-.055.032a2.7 2.7 0 0 0-.505.292.36.36 0 0 0-.144.132z" clip-rule="evenodd"/><path stroke="#3fcf8e" stroke-width="4" d="m102.5 125 17.104 8.102a2 2 0 0 1 .909 2.749l-14.191 26.607a2 2 0 0 0 .596 2.564l31.48 22.684a2 2 0 0 0 2.247.062l65.278-41.759a2 2 0 0 1 2.688.498l25.766 34.969a2 2 0 0 0 2.706.487L250 173.5"/><path stroke="#3fcf8e" stroke-width="3.96" d="M103.52 121c0 8.295-6.725 15.02-15.02 15.02S73.48 129.295 73.48 121s6.725-15.02 15.02-15.02 15.02 6.725 15.02 15.02Z"/><path fill="#3fcf8e" stroke="#3fcf8e" stroke-width="4.961" d="M96.02 121a7.52 7.52 0 1 1-15.04 0 7.52 7.52 0 0 1 15.04 0ZM264.02 170a7.52 7.52 0 1 1-15.04 0 7.52 7.52 0 0 1 15.04 0Z"/><path fill="#343434" d="M44.5 30a8 8 0 0 1 8-8h255a8 8 0 0 1 8 8v57h-271z"/><path fill="#a0a0a0" d="M72.576 47v-8.508H71.4v6.528l-4.248-6.528H65.58V47h1.176v-6.936L71.352 47zm2.768-3.48c.048-.744.624-1.476 1.572-1.476 1.02 0 1.56.648 1.584 1.476zm3.324 1.5c-.216.648-.684 1.164-1.62 1.164-.972 0-1.716-.72-1.74-1.752h4.344c.012-.072.024-.216.024-.36 0-1.8-.996-3.024-2.772-3.024-1.452 0-2.76 1.236-2.76 3.048 0 1.956 1.356 3.084 2.904 3.084 1.344 0 2.268-.804 2.592-1.824zm5.642-3.792-1.5 4.344-1.296-4.344h-1.236L82.174 47h1.188l1.5-4.392L86.398 47h1.164l1.872-5.772h-1.188l-1.272 4.344-1.5-4.344zm8.903 4.224c0 .912.756 1.728 1.932 1.728 1.032 0 1.608-.552 1.86-.96 0 .42.036.636.06.78h1.104a5.4 5.4 0 0 1-.072-.948V43.16c0-1.128-.672-2.112-2.4-2.112-1.248 0-2.244.768-2.364 1.872l1.08.252c.072-.672.516-1.164 1.308-1.164.876 0 1.248.468 1.248 1.032 0 .204-.096.384-.444.432l-1.56.228c-.996.144-1.752.72-1.752 1.752m2.088.78c-.576 0-.936-.408-.936-.84 0-.516.36-.792.84-.864l1.764-.264v.264c0 1.26-.744 1.704-1.668 1.704m7.758-5.064a2 2 0 0 0-.372-.036c-.588 0-1.308.216-1.728 1.104v-1.008h-1.105V47h1.129v-2.892c0-1.272.636-1.776 1.584-1.776.156 0 .324.012.492.036zm4.406 0a2 2 0 0 0-.372-.036c-.588 0-1.308.216-1.728 1.104v-1.008h-1.104V47h1.128v-2.892c0-1.272.636-1.776 1.584-1.776.156 0 .324.012.492.036zM109.783 47v-5.772h-1.116V47zm-1.368-7.956c0 .444.36.804.804.804a.81.81 0 1 0-.804-.804m8.231 2.184h-1.212l-1.656 4.452-1.644-4.452h-1.272l2.34 5.772h1.14zm.661 4.224c0 .912.756 1.728 1.932 1.728 1.032 0 1.608-.552 1.86-.96 0 .42.036.636.06.78h1.104a5.4 5.4 0 0 1-.072-.948V43.16c0-1.128-.672-2.112-2.4-2.112-1.248 0-2.244.768-2.364 1.872l1.08.252c.072-.672.516-1.164 1.308-1.164.876 0 1.248.468 1.248 1.032 0 .204-.096.384-.444.432l-1.56.228c-.996.144-1.752.72-1.752 1.752m2.088.78c-.576 0-.936-.408-.936-.84 0-.516.36-.792.84-.864l1.764-.264v.264c0 1.26-.744 1.704-1.668 1.704m5.681.768v-8.688h-1.128V47zm6.431-7.596h-1.032v.936c0 .504-.264.888-.888.888h-.312v1.02h1.104v3.168c0 1.044.624 1.644 1.608 1.644.384 0 .672-.072.768-.108v-.96c-.096.024-.3.048-.444.048-.588 0-.804-.264-.804-.792v-3h1.248v-1.02h-1.248zm3.87 7.596v-5.772h-1.116V47zm-1.368-7.956c0 .444.36.804.804.804a.81.81 0 1 0-.804-.804M138.412 47v-3.48c0-.864.54-1.464 1.344-1.464.864 0 1.224.576 1.224 1.32V47h1.128v-3.492c0-.828.54-1.452 1.332-1.452.852 0 1.224.564 1.224 1.32V47h1.116v-3.744c0-1.512-.984-2.196-1.992-2.196-.732 0-1.476.264-1.932 1.092-.312-.744-1.008-1.092-1.728-1.092-.672 0-1.392.3-1.752.936v-.768h-1.08V47zm9.905-3.48c.048-.744.624-1.476 1.572-1.476 1.02 0 1.56.648 1.584 1.476zm3.324 1.5c-.216.648-.684 1.164-1.62 1.164-.972 0-1.716-.72-1.74-1.752h4.344c.012-.072.024-.216.024-.36 0-1.8-.996-3.024-2.772-3.024-1.452 0-2.76 1.236-2.76 3.048 0 1.956 1.356 3.084 2.904 3.084 1.344 0 2.268-.804 2.592-1.824z"/><path fill="#ecedee" d="M70.56 69V56.04h-2.08c-.28 1.36-1.56 2.4-3.42 2.44v1.64h3.14V69zm4.815-8.1c-.02-.22-.06-.46-.06-.66 0-1.34.74-2.4 2.26-2.4 1.46 0 2.18.96 2.18 2.02 0 .94-.5 1.72-1.66 2.44l-2.14 1.34c-2.26 1.4-3.04 3.14-3.08 5.36h9.38v-2.12h-6.42c.18-.64.7-1.1 1.32-1.48l2.52-1.56c1.56-.96 2.5-2.34 2.5-4.02 0-2.22-1.7-4.08-4.56-4.08-2.94 0-4.62 2.02-4.62 4.26 0 .26.04.56.06.74zM91.718 69v-5.78c0-1.24.78-2.16 2.02-2.16 1.32 0 1.88.88 1.88 2V69h2.28v-5.78c0-1.2.8-2.16 2.02-2.16 1.3 0 1.88.86 1.88 2V69h2.24v-6.32c0-2.58-1.68-3.7-3.44-3.7-1.26 0-2.4.44-3.16 1.72-.52-1.14-1.64-1.72-2.92-1.72-1.1 0-2.32.52-2.88 1.52v-1.24h-2.22V69zm17.461 0v-9.74h-2.3V69zm-2.66-13.16c0 .84.68 1.5 1.5 1.5.84 0 1.52-.66 1.52-1.5s-.68-1.52-1.52-1.52c-.82 0-1.5.68-1.5 1.52m7.973 7.54c0-1.28.7-2.3 2.02-2.3 1.46 0 2 .96 2 2.16V69h2.32v-6.16c0-2.14-1.14-3.86-3.52-3.86-1.08 0-2.24.46-2.88 1.58v-1.3h-2.26V69h2.32zm15.368 4.54c0 .4.04.86.08 1.08h2.22c-.04-.36-.1-.98-.1-1.78v-7.96h-2.32v5.76c0 1.28-.7 2.18-2.04 2.18-1.4 0-1.96-1.02-1.96-2.22v-5.72h-2.32v6.14c0 2.16 1.36 3.88 3.68 3.88 1.14 0 2.28-.48 2.76-1.36m8.143-11.64h-2.1v1.46c0 .86-.46 1.52-1.5 1.52h-.5v2.06h1.8v4.9c0 1.82 1.12 2.9 2.92 2.9.84 0 1.28-.16 1.42-.22v-1.92c-.1.02-.48.08-.8.08-.86 0-1.24-.36-1.24-1.22v-4.52h2.02v-2.06h-2.02zm5.926 6.78c.08-1.04.92-2.16 2.38-2.16 1.6 0 2.36 1.02 2.4 2.16zm5.04 2.54c-.32.96-1.04 1.7-2.44 1.7-1.44 0-2.6-1.06-2.66-2.54h7.12c.02-.04.06-.36.06-.74 0-3.08-1.76-5.06-4.76-5.06-2.46 0-4.74 2.04-4.74 5.12 0 3.3 2.34 5.22 4.98 5.22 2.34 0 3.88-1.38 4.4-3.08zm3.437.76c.12 1.1 1.2 2.94 4.02 2.94 2.48 0 3.68-1.64 3.68-3.12 0-1.44-.96-2.56-2.8-2.96l-1.48-.3c-.6-.12-.98-.5-.98-1.02 0-.6.58-1.12 1.4-1.12 1.3 0 1.72.9 1.8 1.46l1.96-.56c-.16-.96-1.04-2.72-3.76-2.72-2.02 0-3.58 1.44-3.58 3.14 0 1.34.9 2.46 2.62 2.84l1.44.32c.78.16 1.14.56 1.14 1.08 0 .6-.5 1.12-1.46 1.12-1.24 0-1.9-.78-1.98-1.66zm14.361 0c0 1.54 1.26 2.94 3.3 2.94 1.58 0 2.54-.8 3-1.54 0 .78.08 1.18.1 1.24h2.16c-.02-.1-.12-.68-.12-1.56V62.6c0-1.94-1.14-3.64-4.14-3.64-2.4 0-3.92 1.5-4.1 3.18l2.12.48c.1-.98.78-1.76 2-1.76 1.28 0 1.84.66 1.84 1.48 0 .34-.16.62-.72.7l-2.5.38c-1.66.24-2.94 1.2-2.94 2.94m3.74 1.12c-.92 0-1.42-.6-1.42-1.26 0-.8.58-1.2 1.3-1.32l2.54-.38v.44c0 1.9-1.12 2.52-2.42 2.52m12.966-8.22-2.3 6.74-1.98-6.74h-2.48l3.16 9.74h2.38l2.36-7 2.42 7h2.32l3.12-9.74h-2.36l-1.94 6.74-2.3-6.74zm10.111 7.1c0 1.54 1.26 2.94 3.3 2.94 1.58 0 2.54-.8 3-1.54 0 .78.08 1.18.1 1.24h2.16c-.02-.1-.12-.68-.12-1.56V62.6c0-1.94-1.14-3.64-4.14-3.64-2.4 0-3.92 1.5-4.1 3.18l2.12.48c.1-.98.78-1.76 2-1.76 1.28 0 1.84.66 1.84 1.48 0 .34-.16.62-.72.7l-2.5.38c-1.66.24-2.94 1.2-2.94 2.94m3.74 1.12c-.92 0-1.42-.6-1.42-1.26 0-.8.58-1.2 1.3-1.32l2.54-.38v.44c0 1.9-1.12 2.52-2.42 2.52m10.23 5.46 6.2-13.68h-2.46l-2.62 6.16-2.8-6.16h-2.62l4.16 8.58-2.34 5.1z"/></g><defs><clipPath id="a"><path fill="#fff" d="M.5 0h360v210H.5z"/></clipPath></defs></svg>
